www/assets/icons/wind_power.svg

<svg width="24" height="24" viewBox="0 0 24 24" xmlns="http://www.w3.org/2000/svg" fill='currentColor'><path d="M10.2501 2.74721H4.25012V4.74721H10.2501V2.74721Z"/><path d="M6.25012 6.74721H1.25012V8.74721H6.25012V6.74721Z"/><path d="M8.25012 18.7472H3.25012V20.7472H8.25012V18.7472Z"/><path d="M13.9801 10.3572C14.7301 10.5872 15.2801 11.1372 15.5501 11.8172L19.8201 4.70721C20.4701 3.62721 20.1201 2.22721 19.0401 1.57721C18.1701 1.05721 17.0501 1.16721 16.3101 1.86721L12.8801 5.07721C12.4801 5.44721 12.2501 5.97721 12.2501 6.52721V10.4572C12.6101 10.3072 13.2301 10.1272 13.9801 10.3572Z"/><path d="M10.8601 12.0172C11.0201 11.4972 11.3401 11.0572 11.7501 10.7472H3.53012C2.27012 10.7472 1.25012 11.7672 1.25012 13.0272C1.25012 14.0472 1.92012 14.9372 2.90012 15.2172L7.41012 16.5072C7.94012 16.6572 8.51012 16.5872 8.99012 16.2972L11.6801 14.6872C10.9101 14.0672 10.5501 13.0172 10.8601 12.0172Z"/><path d="M22.4601 18.3572L20.1801 14.2572C19.9101 13.7772 19.4501 13.4272 18.9201 13.2872L15.7401 12.4872C15.7701 12.8072 15.7401 13.1472 15.6401 13.4772C15.3201 14.5372 14.3601 15.2472 13.2501 15.2472C12.6401 15.2472 12.2601 15.0272 12.2501 15.0272V20.7472C11.1501 20.7472 10.2501 21.6472 10.2501 22.7472H16.2501C16.2501 21.6472 15.3501 20.7472 14.2501 20.7472V16.4672L18.8601 21.0772C19.7501 21.9672 21.1901 21.9672 22.0801 21.0772C22.8001 20.3572 22.9601 19.2472 22.4601 18.3572Z"/><path d="M12.8101 14.1772C13.6001 14.4172 14.4401 13.9772 14.6801 13.1772C14.9201 12.3872 14.4801 11.5472 13.6801 11.3072C12.8901 11.0672 12.0501 11.5072 11.8101 12.3072C11.5701 13.0972 12.0201 13.9372 12.8101 14.1772Z"/></svg>

<svg xmlns="http://www.w3.org/2000/svg" width="24" height="24" viewBox="0 0 24 24" fill='currentColor'><path d="M10.25 2.747h-6v2h6zm-4 4h-5v2h5zm2 12h-5v2h5zm5.73-8.39c.75.23 1.3.78 1.57 1.46l4.27-7.11a2.28 2.28 0 0 0-3.51-2.84l-3.43 3.21c-.4.37-.63.9-.63 1.45v3.93c.36-.15.98-.33 1.73-.1m-3.12 1.66c.16-.52.48-.96.89-1.27H3.53a2.279 2.279 0 0 0-.63 4.47l4.51 1.29c.53.15 1.1.08 1.58-.21l2.69-1.61a2.49 2.49 0 0 1-.82-2.67m11.6 6.34-2.28-4.1a2.05 2.05 0 0 0-1.26-.97l-3.18-.8c.03.32 0 .66-.1.99a2.48 2.48 0 0 1-2.39 1.77c-.61 0-.99-.22-1-.22v5.72c-1.1 0-2 .9-2 2h6c0-1.1-.9-2-2-2v-4.28l4.61 4.61c.89.89 2.33.89 3.22 0 .72-.72.88-1.83.38-2.72"/><path d="M12.81 14.177c.79.24 1.63-.2 1.87-1 .24-.79-.2-1.63-1-1.87-.79-.24-1.63.2-1.87 1-.24.79.21 1.63 1 1.87"/></svg>
